src/img/weather-station.svg

<svg width="24" height="24" viewBox="0 0 24 24" fill="none" xmlns="http://www.w3.org/2000/svg">
<path d="M14.13 13.39L19.29 16.39L20.29 14.65L15 11.54C15.0152 11.3603 15.0152 11.1797 15 11C14.9982 10.3811 14.8051 9.7778 14.447 9.27293C14.089 8.76807 13.5835 8.38631 13 8.18V2H11V8.18C10.4164 8.38631 9.91096 8.76807 9.5529 9.27293C9.19484 9.7778 9.0017 10.3811 8.99996 11C8.9847 11.1797 8.9847 11.3603 8.99996 11.54L3.70996 14.63L4.70996 16.37L9.86996 13.37L8.21996 20H3.99996V22H20V20H15.78L14.13 13.39ZM12 10C12.1977 10 12.3911 10.0586 12.5555 10.1685C12.72 10.2784 12.8482 10.4346 12.9238 10.6173C12.9995 10.8 13.0193 11.0011 12.9807 11.1951C12.9422 11.3891 12.8469 11.5673 12.7071 11.7071C12.5672 11.847 12.389 11.9422 12.1951 11.9808C12.0011 12.0194 11.8 11.9996 11.6173 11.9239C11.4346 11.8482 11.2784 11.72 11.1685 11.5556C11.0586 11.3911 11 11.1978 11 11C11 10.7348 11.1053 10.4804 11.2929 10.2929C11.4804 10.1054 11.7347 10 12 10Z" fill="currentcolor"/>
</svg>

<svg xmlns="http://www.w3.org/2000/svg" width="24" height="24" fill="none"><path fill="currentcolor" d="m14.13 13.39 5.16 3 1-1.74L15 11.54q.023-.27 0-.54a3 3 0 0 0-2-2.82V2h-2v6.18A3 3 0 0 0 9 11a3 3 0 0 0 0 .54l-5.29 3.09 1 1.74 5.16-3L8.22 20H4v2h16v-2h-4.22zM12 10a1 1 0 1 1 0 2 1 1 0 0 1 0-2"/></svg>
